Newaita-dark/actions/32/draw-cuboid.svg

<svg height="32" viewBox="0 0 32 32" width="32" xmlns="http://www.w3.org/2000/svg"><path d="m15.820312 4.226562c-.136718.003907-.273437.035157-.40625.082032l-10.382812 3.894531c-.613281.125-1.054688.664063-1.054688 1.292969v.015625 11.695312c-.046874.289063.007813.585938.148438.839844.003906.003906.007812.011719.007812.015625.011719.019531.023438.039062.035157.054688.164062.273437.421875.476562.726562.574218l10.21875 5.109375c.460938.328125 1.074219.324219 1.53125 0l10.210938-5.109375c.3125-.097656.574219-.304687.738281-.585937.167969-.269531.230469-.585938.183594-.898438v-11.695312c.007812-.632813-.433594-1.183594-1.054688-1.308594l-10.382812-3.894531c-.164063-.0625-.339844-.089844-.519532-.082032zm.054688 2.722657 7.296875 2.734375-7.296875 3.648437-7.292969-3.648437zm-9.265625 4.691406 7.949219 3.976563v8.964843l-7.949219-3.976562zm18.535156 0v8.964844l-7.953125 3.976562v-8.964843zm0 0" fill="#e0e0e0"/></svg>

<?xml version="1.0" encoding="UTF-8"?>
<svg xmlns="http://www.w3.org/2000/svg" xmlns:xlink="http://www.w3.org/1999/xlink" width="32px" height="32px" viewBox="0 0 32 32" version="1.1">
<g id="surface1">
<path style=" stroke:none;fill-rule:nonzero;fill:rgb(87.843138%,87.843138%,87.843138%);fill-opacity:1;" d="M 15.820312 4.226562 C 15.683594 4.230469 15.546875 4.261719 15.414062 4.308594 L 5.03125 8.203125 C 4.417969 8.328125 3.976562 8.867188 3.976562 9.496094 C 3.976562 9.5 3.976562 9.507812 3.976562 9.511719 L 3.976562 21.207031 C 3.929688 21.496094 3.984375 21.792969 4.125 22.046875 C 4.128906 22.050781 4.132812 22.058594 4.132812 22.0625 C 4.144531 22.082031 4.15625 22.101562 4.167969 22.117188 C 4.332031 22.390625 4.589844 22.59375 4.894531 22.691406 L 15.113281 27.800781 C 15.574219 28.128906 16.1875 28.125 16.644531 27.800781 L 26.855469 22.691406 C 27.167969 22.59375 27.429688 22.386719 27.59375 22.105469 C 27.761719 21.835938 27.824219 21.519531 27.777344 21.207031 L 27.777344 9.511719 C 27.785156 8.878906 27.34375 8.328125 26.722656 8.203125 L 16.339844 4.308594 C 16.175781 4.246094 16 4.21875 15.820312 4.226562 Z M 15.875 6.949219 L 23.171875 9.683594 L 15.875 13.332031 L 8.582031 9.683594 Z M 6.609375 11.640625 L 14.558594 15.617188 L 14.558594 24.582031 L 6.609375 20.605469 Z M 25.144531 11.640625 L 25.144531 20.605469 L 17.191406 24.582031 L 17.191406 15.617188 Z M 25.144531 11.640625 "/>
</g>
</svg>
